X: 6
T: Anima mea liquefacta est / Stirips Jesse
N: Derived from Bus2003-Anima_mea_liquefacta_est__Stirips_Jesse.krn
C: Antoine Busnoys
%%abc-version 2.0
%%abcx-abcm2ps-target-version 5.9.1 (29 Sep 2008)
%%abc-creator hum2abc beta
%%abcx-conversion-date 2019/02/16 20:26:06
%%abc-edited-by Jesse Rodin
%%abc-edited-by Jesse Rodin; Megan K. Eagen 2013/04/29
%%abcx-initial-encoding-date 2013/04/29/
%%humdrum-veritas 584288330
%%humdrum-veritas-data 2829758163
%%linebreak <none>
%%barnumbers 0
L: 1/4
M: 4/2
Q: 1/2=120
V: 1 clef=treble-8
V: 2 clef=bass
V: 3 clef=bass
K: C
[V:1] d8 | 
[V:2] D,6E,2 | 
[V:3] z8 | 
[V:1] d4c4 | 
[V:2] F,2G,2E,4 | 
[V:3] z8 | 
[V:1] d6e2- | 
[V:2] D,3C,B,,2A,,2 | 
[V:3] z8 | 
[V:1] e4f4 | 
[V:2] C,4D,2A,2- | 
[V:3] z8 | 
[V:1] e6d2 | 
[V:2] A,2B,2C4 | 
[V:3] z8 | 
[V:1] d4z4 | 
[V:2] D4B,2G,2- | 
[V:3] z8 | 
[V:1] d4e2f2- | 
[V:2] G,A,B,2C2A,2- | 
[V:3] z8 | 
[V:1] fed4^c2 | 
[V:2] A,G,F,2E,4 | 
[V:3] z8 | 
[V:1] d4f4 | 
[V:2] z2D,4A,2- | 
[V:3] z8 | 
[V:1] e4d3c | 
[V:2] A,2G,2_B,3A, | 
[V:3] z8 | 
[V:1] d2e3dc2- | 
[V:2] F,2G,2A,3G, | 
[V:3] z8 | 
[V:1] cBA4e2 | 
[V:2] F,3E,D,2C,2 | 
[V:3] z8 | 
[V:1] d2f4e2- | 
[V:2] D,3E,F,2G,2 | 
[V:3] z8 | 
[V:1] e2d4^c2 | 
[V:2] A,2F,2E,4 | 
[V:3] z8 | 
[V:1] d6A2 | 
[V:2] D,8 | 
[V:3] z4D,4 | 
[V:1] _B2A4GF | 
[V:2] z8 | 
[V:3] D,8 | 
[V:1] E4e4 | 
[V:2] A,,8 | 
[V:3] C,8 | 
[V:1] f6ed | 
[V:2] A,4A,4- | 
[V:3] D,6E,2 | 
[V:1] c2d4^c2 | 
[V:2] A,4G,2F,2 | 
[V:3] F,4E,4 | 
[V:1] d4z4 | 
[V:2] _B,4A,4 | 
[V:3] D,8 | 
[V:1] c6d2- | 
[V:2] z2A,,4B,,2 | 
[V:3] E,4F,4- | 
[V:1] d2e2f2ed | 
[V:2] D,2C,2B,,4 | 
[V:3] F,2E,2D,4 | 
[V:1] e4A2B2 | 
[V:2] A,,4z4 | 
[V:3] C,4D,3E, | 
[V:1] A2d4c2 | 
[V:2] D,4A,,4 | 
[V:3] F,4E,4 | 
[V:1] d2f2e2g2- | 
[V:2] B,,4C,3D, | 
[V:3] z2D,2E,3D, | 
[V:1] gfedc2e2- | 
[V:2] E,6C,2 | 
[V:3] C,3B,,A,,4 | 
[V:1] efg3ef2- | 
[V:2] C,4z2_B,,2- | 
[V:3] E,6D,2 | 
[V:1] fed3AB2 | 
[V:2] B,,C,D,3C,=B,,2 | 
[V:3] F,6D,2 | 
[V:1] c2d4^c2 | 
[V:2] A,,2G,,2A,,4 | 
[V:3] E,8 | 
[V:1] d8 | 
[V:2] z2A,4G,2 | 
[V:3] D,8- | 
[V:1] z2a4g2 | 
[V:2] F,2E,D,^C,3B,, | 
[V:3] D,4z4 | 
[V:1] f2ed^c3B | 
[V:2] D,4E,4 | 
[V:3] z8 | 
[V:1] d2A2BAGF | 
[V:2] D,2D,4B,,2 | 
[V:3] z8 | 
[V:1] E2FE2A2^G | 
[V:2] C,2D,E,2C,B,,2 | 
[V:3] z8 | 
[V:1] A3GE4 | 
[V:2] A,,8 | 
[V:3] C,8 | 
[V:1] z8 | 
[V:2] A,3G,F,2E,2 | 
[V:3] D,6E,2 | 
[V:1] A4B2A2 | 
[V:2] D,4z2D,2- | 
[V:3] F,4D,2F,2- | 
[V:1] d2e2f2ed | 
[V:2] D,2C,2_B,,4 | 
[V:3] F,2E,2D,3C, | 
[V:1] c3de4 | 
[V:2] A,,4z2A,,2- | 
[V:3] E,8 | 
[V:1] A4z4 | 
[V:2] A,,2D,2C,2E,2 | 
[V:3] F,4G,4 | 
[V:1] A4B4 | 
[V:2] F,2A,2G,4 | 
[V:3] F,2F,4E,2 | 
[V:1] A2d4c2 | 
[V:2] F,4z4 | 
[V:3] F,4E,4 | 
[V:1] d2f2e2g2 | 
[V:2] _B,,4C,2E,2 | 
[V:3] D,4C,4 | 
[V:1] f2e4d2 | 
[V:2] D,2C,2D,4 | 
[V:3] D,2E,2F,4 | 
[V:1] e4c2g2- | 
[V:2] A,,3B,,C,3D, | 
[V:3] E,8 | 
[V:1] gfed^c3B | 
[V:2] E,3F,G,3A, | 
[V:3] E,8 | 
[V:1] d4e4 | 
[V:2] _B,2A,4G,2 | 
[V:3] D,4C,4 | 
[V:1] d2f4ed | 
[V:2] F,3E,F,4 | 
[V:3] D,8 | 
[V:1] c2e3fg2- | 
[V:2] E,6C,2 | 
[V:3] A,,4C,4 | 
[V:1] gfd2e4 | 
[V:2] D,2B,,2A,,4 | 
[V:3] B,,4C,4 | 
[V:1] d4z2a2- | 
[V:2] z2D,3E,F,2- | 
[V:3] D,8 | 
[V:1] agfef2ed | 
[V:2] F,E,D,C,B,,4 | 
[V:3] z4D,4 | 
[V:1] c6A2- | 
[V:2] A,,4z4 | 
[V:3] E,4F,4 | 
[V:1] A2B4G2- | 
[V:2] z8 | 
[V:3] D,4E,4 | 
[V:1] G2c4B2 | 
[V:2] E,4F,4 | 
[V:3] C,4D,4 | 
[V:1] c2e3fg2- | 
[V:2] G,4C,4- | 
[V:3] C,3D,E,3F, | 
[V:1] g2e4d2 | 
[V:2] C,4D,4 | 
[V:3] G,4F,4 | 
[V:1] e3fg3f | 
[V:2] A,,4z2E,2 | 
[V:3] E,6G,2- | 
[V:1] e2d4c2 | 
[V:2] C,2D,2A,,4 | 
[V:3] G,2F,2E,4 | 
[V:1] d2f2e2g2 | 
[V:2] B,,4C,4 | 
[V:3] D,4E,4 | 
[V:1] f2edc2BA | 
[V:2] D,4A,,3B,, | 
[V:3] F,4E,4- | 
[V:1] G2c4B2 | 
[V:2] C,2A,,2G,,4 | 
[V:3] E,2C,2D,4 | 
[V:1] c4z4 | 
[V:2] z2G,4A,2- | 
[V:3] C,8 | 
[V:1] c4d4 | 
[V:2] A,G,E,2F,2D,2- | 
[V:3] z8 | 
[V:1] f4e2c2- | 
[V:2] D,2B,,2C,2A,,2- | 
[V:3] D,4E,4 | 
[V:1] cBA2G2c2- | 
[V:2] A,,2D,2E,2C,2 | 
[V:3] F,4E,4- | 
[V:1] cde2f2ed | 
[V:2] A,,2C,2B,,4 | 
[V:3] E,4D,4 | 
[V:1] c2e3fed/c/ | 
[V:2] A,,4G,,4 | 
[V:3] E,4G,4- | 
[V:1] B2A4d2- | 
[V:2] z4D,4 | 
[V:3] G,2F,2F,4- | 
[V:1] d2B2cBAG | 
[V:2] B,,4A,,4 | 
[V:3] F,2D,2E,4 | 
[V:1] F3GA2_B2- | 
[V:2] A,4F,2G,2 | 
[V:3] D,8- | 
[V:1] BAd3ef2- | 
[V:2] A,4z2D,2 | 
[V:3] D,4D,4 | 
[V:1] feg3fd2- | 
[V:2] E,2C,2B,,4 | 
[V:3] C,4D,4 | 
[V:1] d2^cB^c4 | 
[V:2] A,,8 | 
[V:3] E,4E,4 | 
[V:1] d8 | 
[V:2] A,4_B,4 | 
[V:3] D,6E,2 | 
[V:1] z8 | 
[V:2] A,2G,3E,F,G, | 
[V:3] F,2E,4D,2 | 
[V:1] z8 | 
[V:2] E,2D,3C,B,,2 | 
[V:3] E,2F,3E,D,2 | 
[V:1] z8 | 
[V:2] A,,2D,4^C,2 | 
[V:3] C,2F,2E,4 | 
[V:1] d4B2A2- | 
[V:2] D,2F,3G,A,2- | 
[V:3] D,8 | 
[V:1] A2d4c2 | 
[V:2] A,2F,2E,4 | 
[V:3] z8 | 
[V:1] d4f4 | 
[V:2] D,2F,4A,2 | 
[V:3] D,8 | 
[V:1] g4a2gf | 
[V:2] G,2F,E,D,4 | 
[V:3] E,4F,4 | 
[V:1] e2e3dcB | 
[V:2] C,4z2C,2 | 
[V:3] G,8 | 
[V:1] A3Bc2A2 | 
[V:2] D,2C,B,,A,,2D,2- | 
[V:3] F,3D,E,2F,2- | 
[V:1] d2e2f3e | 
[V:2] D,2C,2B,,4 | 
[V:3] F,E,E,4D,2 | 
[V:1] ^c8 | 
[V:2] A,,4z4 | 
[V:3] E,8- | 
[V:1] z4d4 | 
[V:2] C,4D,3E, | 
[V:3] E,4z4 | 
[V:1] d8 | 
[V:2] F,2G,3F,E,D, | 
[V:3] z8 | 
[V:1] c4d2f2- | 
[V:2] E,4D,3E, | 
[V:3] z8 | 
[V:1] f2e2c3d | 
[V:2] F,2G,2A,3B, | 
[V:3] z8 | 
[V:1] e2f4e2- | 
[V:2] C2A,4G,2 | 
[V:3] z8 | 
[V:1] e2d2e2g2- | 
[V:2] F,4E,4- | 
[V:3] z8 | 
[V:1] g2e2f4- | 
[V:2] E,2C,2D,3C, | 
[V:3] z8 | 
[V:1] f2d2e4 | 
[V:2] A,,2B,,2C,4 | 
[V:3] z8 | 
[V:1] d4z2a2- | 
[V:2] z2D,4F,2 | 
[V:3] z8 | 
[V:1] a2g2f3g | 
[V:2] E,4D,2F,2- | 
[V:3] z8 | 
[V:1] a4e3f | 
[V:2] F,G,A,4E,2- | 
[V:3] z8 | 
[V:1] g4d3e | 
[V:2] E,F,G,4D,2- | 
[V:3] z8 | 
[V:1] f3ec3d | 
[V:2] D,E,F,3E,C,2- | 
[V:3] z8 | 
[V:1] e3dB3c | 
[V:2] C,D,E,3D,B,,2- | 
[V:3] z8 | 
[V:1] d3cA4- | 
[V:2] B,,C,D,3C,A,,2 | 
[V:3] z8 | 
[V:1] A2d4^c2 | 
[V:2] D,2F,2E,4 | 
[V:3] z8 | 
[V:1] d4z2d2 | 
[V:2] z2D,2F,3E, | 
[V:3] z8 | 
[V:1] f3ed2c2 | 
[V:2] D,2C,2B,,2C,2 | 
[V:3] z8 | 
[V:1] B2c2d2f2- | 
[V:2] D,2E,2F,4 | 
[V:3] z8 | 
[V:1] fed4^c2 | 
[V:2] D,4E,4 | 
[V:3] z8 | 
[V:1] (3d4z4f4 | 
[V:2] z4D,4 | 
[V:3] D,8 | 
[V:1] (3:2:5f2g2a4g2e2 | 
[V:2] A,8- | 
[V:3] D,4C,4 | 
[V:1] (3f4d6c2 | 
[V:2] A,8 | 
[V:3] (3D,4F,6E,2 | 
[V:1] (3e4z4e4 | 
[V:2] (3:2:4G,6A,2G,2E,2 | 
[V:3] C,8 | 
[V:1] (3A4B4c4 | 
[V:2] (3:2:4D,4F,2E,2G,4 | 
[V:3] D,4E,4 | 
[V:1] (3:2:4A4d4c2B2 | 
[V:2] (3F,4_B,,4A,,4 | 
[V:3] (3F,6D,2E,4 | 
[V:1] (3d2e2f2(3g2f2d2 | 
[V:2] (3:2:5z2D,4E,2D,2B,,2 | 
[V:3] D,4z4 | 
[V:1] (3c2e2d2(3B2d2c2 | 
[V:2] (3:2:5A,,2C,2B,,2G,,4G,2 | 
[V:3] (3E,4G,6E,2 | 
[V:1] (3:2:5A2B2d2^c4B2 | 
[V:2] (3:2:4F,2D,4G,4F,2 | 
[V:3] (3F,4E,6D,2 | 
[V:1] [M:2/1]d3BAB2c | 
[V:2] A,3G,F,2E,2 | 
[V:3] D,6E,2 | 
[V:1] Adcf2e/d/ e/d/c/B/ | 
[V:2] D,2F,2C,4 | 
[V:3] F,2A,2G,4 | 
[V:1] A3/B/cd2cdf | 
[V:2] z2F,3E,D,2 | 
[V:3] F,4z4 | 
[V:1] eg3/f/ e/d/^cB^c2 | 
[V:2] C,2D,2E,4 | 
[V:3] z4z2G,2 | 
[V:1] [M:4/2]d4z2g2 | 
[V:2] D,4z4 | 
[V:3] A,4E,4 | 
[V:1] a4e4 | 
[V:2] z8 | 
[V:3] z2F,2G,4 | 
[V:1] z2f2g4 | 
[V:2] z8 | 
[V:3] D,4z2E,2 | 
[V:1] d4z2e2 | 
[V:2] A,4G,4 | 
[V:3] F,3E,C,4 | 
[V:1] f2edc2A2 | 
[V:2] F,4E,2F,2- | 
[V:3] D,3C,A,,2D,2- | 
[V:1] d2f3eg2 | 
[V:2] F,E,D,C,/B,,/A,,2E,2 | 
[V:3] D,2B,,2C,4 | 
[V:1] f2a3gfd | 
[V:2] [M:2/1]F,3/D,/D,2zC,D,F, | 
[V:3] D,2F,3E,D,2 | 
[V:1] e2dfegfe/d/ | 
[V:2] E,G,3/F,/ E,/D,/C,E,D,C,/B,,/ | 
[V:3] C,2B,,2C,2D,2 | 
[V:1] c3A2BAG/F/ | 
[V:2] A,,2zD,2D,E,F, | 
[V:3] E,2F,4E,D, | 
[V:1] [M:3/1](3:2:6E3FG2A3Bc2 | 
[V:2] [M:4/2](3:2:6G,3F,E,2F,3G,A,2 | 
[V:3] C,4z4 | 
[V:1] (3:2:5d2e3dd4^c2 | 
[V:2] (3:2:6F,2G,3D,F,2E,3D, | 
[V:3] z8 | 
[V:1] d8- | 
[V:2] D,8 | 
[V:3] D,8- | 
[V:1] d8 |]  
[V:2] A,8 |]  
[V:3] D,8 |]  



